src/assets/images/brands/findingnemo.svg

<svg height="45" viewBox="0 0 128 45" width="128" xmlns="http://www.w3.org/2000/svg"><path d="m8.079905 8.205753v-7.806095h6.578367v1.95908h-3.024727v1.417103h2.242888v1.95908h-2.242888v2.470832zm7.036683 0v-7.806095h3.553639v7.806095zm12.233183.061497h-2.748735l-1.677841-2.460575v2.399078h-3.568121v-7.806095h2.586145l1.821087 2.639698v-2.639698h3.587597v7.867592zm.693177-7.867592h4.057699c1.384556 0 2.453659.382847 3.207306 1.148415.753654.765568 1.130607 1.688858 1.130607 2.770004 0 .68882-.171432 1.339459-.514179 1.951397-.342743.612202-.844749 1.08794-1.506531 1.427353-.661529.339279-1.461307.508926-2.399078.508926h-3.975824zm3.539291 2.987438v1.831341h.086872c.416033 0 .717135-.072647.902922-.21756.185783-.14479.278805-.382721.278805-.71355 0-.600281-.349663-.900231-1.048729-.900231zm5.35615 4.818657v-7.806095h3.53212v7.806095zm12.197563.061497h-2.719906l-1.677841-2.460575v2.399078h-3.582466v-7.806095h2.600105l1.821217 2.639698v-2.639698h3.558769v7.867592zm8.779362-6.961212-1.703598 2.376778c-.695732-.334156-1.40326-.515587-1.993286-.515587-.392209 0-.706765.101349-.943802.304306-.23703.202953-.355549.471512-.355549.805671 0 .634236.416031.951485 1.248226.951485v-1.222603h3.587593v4.210041c-1.39814.078415-2.474159.117623-2.968735.117623-1.909629 0-3.351581-.405781-4.094986-1.217476-.7434-.811695-1.115226-1.75792-1.115226-2.83907 0-.743274.173229-1.4253.519302-2.046211.346077-.620525.84565-1.101391 1.498848-1.442467.653068-.340824 1.541508-.511489 2.435078-.511489.627315 0 1.277183.091224 1.948837.273681.672031.182198 1.384941.424488 1.937298.755318zm-57.915186 28.36058c9.559019 7.805836 27.303777 15.139134 47.352026 15.139134 23.224682 0 34.050373-8.600617 58.222187-8.600617 9.322105 0 16.369812 1.467198 22.425659 4.886177-6.646141-5.077728-18.940964-7.937427-32.290138-7.937427-12.842308 0-32.27747 5.655331-50.35318 5.655331-18.625366 0-33.683826-4.117981-45.356554-9.142598zm57.809866 6.809636v-7.20876l-.000126-.000129h-11.324375v-3.107237h8.291832v-6.455878h-8.312718v-3.103784h11.341801v-6.495856h-21.201668v26.636486c7.892197.756341 14.402916.355301 21.205254-.264842zm-33.976448-1.293068s5.101507.910888 10.469761 1.411888v-26.36105h-9.204493v8.679928l-7.853247-8.679928h-9.488418v20.770252s5.262745 1.81596 9.490215 2.751301v-5.592804zm10.469761 1.411888.000892.000084h-.000892zm25.58736-26.360157v25.93396h.00013l10.46809-1.670029v-7.102028l4.850937 6.36824 5.051597-.714698 4.34214-5.653542v5.085545s5.413811-.808491 10.457711-1.059492v-21.187956h-10.467965l-7.153404 10.11984-7.094986-10.11984zm37.027317 12.41513c0-7.798919 8.012894-12.862938 15.317749-12.862938 8.317841 0 15.438828 5.527335 15.439095 13.23746 0 2.536172-.787743 8.905691-8.314782 11.943616-8.697731-3.057272-19.074981-3.408601-19.074981-3.408601-2.52298-2.600878-3.367081-5.409838-3.367081-8.909537zm12.588737-1.097545-3.050743-2.503758c1.232094 2.309515 1.090767 4.259756.026917 6.301611l3.037277-2.503759c.76532 1.322798 2.138847 2.552702 3.851158 2.552702 1.763947 0 3.335945-1.65939 3.811051-3.188473-.718293-2.030066-2.138718-3.099684-3.939949-3.099684-1.591225 0-2.826889 1.061289-3.735711 2.441361zm-109.50645 8.114231-.000271-.000115z"/></svg>

<?xml version="1.0" encoding="UTF-8"?>
<!-- Generated by Pixelmator Pro 3.6.14 -->
<svg width="128" height="45" viewBox="0 0 128 45" xmlns="http://www.w3.org/2000/svg">
    <path id="findingnemo" fill="#000000" stroke="none" d="M 8.079905 8.205753 L 8.079905 0.399658 L 14.658272 0.399658 L 14.658272 2.358738 L 11.633545 2.358738 L 11.633545 3.775841 L 13.876433 3.775841 L 13.876433 5.734921 L 11.633545 5.734921 L 11.633545 8.205753 L 8.079905 8.205753 Z M 15.116588 8.205753 L 15.116588 0.399658 L 18.670227 0.399658 L 18.670227 8.205753 L 15.116588 8.205753 Z M 27.349771 8.26725 L 24.601036 8.26725 L 22.923195 5.806675 L 22.923195 8.205753 L 19.355074 8.205753 L 19.355074 0.399658 L 21.941219 0.399658 L 23.762306 3.039356 L 23.762306 0.399658 L 27.349903 0.399658 L 27.349903 8.26725 Z M 28.042948 0.399658 L 32.100647 0.399658 C 33.485203 0.399658 34.554306 0.782505 35.307953 1.548073 C 36.061607 2.313641 36.43856 3.236931 36.43856 4.318077 C 36.43856 5.006897 36.267128 5.657536 35.924381 6.269474 C 35.581638 6.881676 35.079632 7.357414 34.41785 7.696827 C 33.756321 8.036106 32.956543 8.205753 32.018772 8.205753 L 28.042948 8.205753 L 28.042948 0.399658 Z M 31.582239 3.387096 L 31.582239 5.218437 L 31.669111 5.218437 C 32.085144 5.218437 32.386246 5.14579 32.572033 5.000877 C 32.757816 4.856087 32.850838 4.618156 32.850838 4.287327 C 32.850838 3.687046 32.501175 3.387096 31.802109 3.387096 L 31.582239 3.387096 Z M 36.938389 8.205753 L 36.938389 0.399658 L 40.470509 0.399658 L 40.470509 8.205753 L 36.938389 8.205753 Z M 49.135952 8.26725 L 46.416046 8.26725 L 44.738205 5.806675 L 44.738205 8.205753 L 41.155739 8.205753 L 41.155739 0.399658 L 43.755844 0.399658 L 45.577061 3.039356 L 45.577061 0.399658 L 49.13583 0.399658 L 49.13583 8.26725 Z M 57.915314 1.306038 L 56.211716 3.682816 C 55.515984 3.34866 54.808456 3.167229 54.21843 3.167229 C 53.826221 3.167229 53.511665 3.268578 53.274628 3.471535 C 53.037598 3.674488 52.919079 3.943047 52.919079 4.277206 C 52.919079 4.911442 53.33511 5.228691 54.167305 5.228691 L 54.167305 4.006088 L 57.754898 4.006088 L 57.754898 8.216129 C 56.356758 8.294544 55.280739 8.333752 54.786163 8.333752 C 52.876534 8.333752 51.434582 7.927971 50.691177 7.116276 C 49.947777 6.304581 49.575951 5.358356 49.575951 4.277206 C 49.575951 3.533932 49.74918 2.851906 50.095253 2.230995 C 50.44133 1.61047 50.940903 1.129604 51.594101 0.788528 C 52.247169 0.447704 53.135609 0.277039 54.029179 0.277039 C 54.656494 0.277039 55.306362 0.368263 55.978016 0.55072 C 56.650047 0.732918 57.362957 0.975208 57.915314 1.306038 Z M 0.000128 29.666618 C 9.559147 37.472454 27.303905 44.805752 47.352154 44.805752 C 70.576836 44.805752 81.402527 36.205135 105.574341 36.205135 C 114.896446 36.205135 121.944153 37.672333 128 41.091312 C 121.353859 36.013584 109.059036 33.153885 95.709862 33.153885 C 82.867554 33.153885 63.432392 38.809216 45.356682 38.809216 C 26.731316 38.809216 11.672856 34.691235 0.000128 29.666618 Z M 57.809994 36.476254 L 57.809994 29.267494 L 57.809868 29.267365 L 46.485493 29.267365 L 46.485493 26.160128 L 54.777325 26.160128 L 54.777325 19.70425 L 46.464607 19.70425 L 46.464607 16.600466 L 57.806408 16.600466 L 57.806408 10.10461 L 36.60474 10.10461 L 36.60474 36.741096 C 44.496937 37.497437 51.007656 37.096397 57.809994 36.476254 Z M 23.833546 35.183186 C 23.833546 35.183186 28.935053 36.094074 34.303307 36.595074 L 34.303307 10.234024 L 25.098814 10.234024 L 25.098814 18.913952 L 17.245567 10.234024 L 7.757149 10.234024 L 7.757149 31.004276 C 7.757149 31.004276 13.019894 32.820236 17.247364 33.755577 L 17.247364 28.162773 L 23.833546 35.183186 Z M 34.303307 36.595074 L 34.304199 36.595158 L 34.303307 36.595158 L 34.303307 36.595074 Z M 59.890667 10.234917 L 59.890667 36.168877 L 59.890797 36.168877 L 70.358887 34.498848 L 70.358887 27.39682 L 75.209824 33.76506 L 80.261421 33.050362 L 84.603561 27.39682 L 84.603561 32.482365 C 84.603561 32.482365 90.017372 31.673874 95.061272 31.422873 L 95.061272 10.234917 L 84.593307 10.234917 L 77.439903 20.354757 L 70.344917 10.234917 L 59.890667 10.234917 Z M 96.917984 22.650047 C 96.917984 14.851128 104.930878 9.787109 112.235733 9.787109 C 120.553574 9.787109 127.674561 15.314444 127.674828 23.024569 C 127.674828 25.560741 126.887085 31.93026 119.360046 34.968185 C 110.662315 31.910913 100.285065 31.559584 100.285065 31.559584 C 97.762085 28.958706 96.917984 26.149746 96.917984 22.650047 Z M 109.506721 21.552502 L 106.455978 19.048744 C 107.688072 21.358259 107.546745 23.3085 106.482895 25.350355 L 109.520172 22.846596 C 110.285492 24.169394 111.659019 25.399298 113.37133 25.399298 C 115.135277 25.399298 116.707275 23.739908 117.182381 22.210825 C 116.464088 20.180759 115.043663 19.111141 113.242432 19.111141 C 111.651207 19.111141 110.415543 20.17243 109.506721 21.552502 Z M 0.000271 29.666733 L 0 29.666618 L 0.000271 29.666733 Z"/>
</svg>
